source/img/chat-icon.svg

<svg width="145" height="110" viewBox="0 0 145 110" fill="none" xmlns="http://www.w3.org/2000/svg">
<path d="M143.71 55.1391C148.542 72.9401 139.446 84.5249 122.392 98.3702C116.139 103.739 98.4021 113.346 77.4823 108.825C51.3325 103.174 61.8495 91.0237 43.0898 74.0704C24.3302 57.117 41.3844 16.994 61.8495 8.23479C82.3145 -0.524445 106.19 -4.76278 122.392 8.23479C138.593 21.2324 138.878 37.3381 143.71 55.1391Z" fill="#F4FBFF"/>
<rect x="27.9995" y="28" width="80" height="56" rx="5" fill="#FFC7DB"/>
<path d="M83.8284 79L98 79C99.1046 79 100 79.8954 100 81L100 95.1716C100 96.9534 97.8457 97.8457 96.5858 96.5858L82.4142 82.4142C81.1543 81.1543 82.0466 79 83.8284 79Z" fill="#FFC7DB"/>
<rect opacity="0.7" x="39" y="57" width="61" height="3" rx="1.5" fill="#FF689E"/>
<rect opacity="0.7" x="39" y="64" width="61" height="3" rx="1.5" fill="#FF689E"/>
<rect opacity="0.7" x="39" y="71" width="42" height="3" rx="1.5" fill="#FF689E"/>
<circle cx="32.0423" cy="41.5745" r="4.46809" fill="#FF689E"/>
<rect y="12" width="88" height="56" rx="5" fill="#AAF0D1"/>
<path d="M8 79.1716V65C8 63.8954 8.89543 63 10 63H24.1716C25.9534 63 26.8457 65.1543 25.5858 66.4142L11.4142 80.5858C10.1543 81.8457 8 80.9534 8 79.1716Z" fill="#AAF0D1"/>
<rect x="8.00049" y="40" width="72" height="3" rx="1.5" fill="white"/>
<rect x="8.00049" y="47" width="72" height="3" rx="1.5" fill="white"/>
<rect x="8.00049" y="54" width="50" height="3" rx="1.5" fill="white"/>
<circle cx="12.5" cy="25.5" r="4.5" fill="#FF689E"/>
</svg>

<svg width="145" height="110" fill="none" xmlns="http://www.w3.org/2000/svg"><path d="M143.71 55.14c4.832 17.8-4.264 29.385-21.318 43.23-6.253 5.369-23.99 14.976-44.91 10.455-26.15-5.651-15.633-17.801-34.392-34.755-18.76-16.953-1.706-57.076 18.76-65.835 20.464-8.76 44.34-12.998 60.542 0 16.201 12.997 16.486 29.103 21.318 46.904z" fill="#F4FBFF"/><rect x="28" y="28" width="80" height="56" rx="5" fill="#FFC7DB"/><path d="M83.828 79H98a2 2 0 012 2v14.172c0 1.781-2.154 2.674-3.414 1.414L82.414 82.414c-1.26-1.26-.367-3.414 1.414-3.414z" fill="#FFC7DB"/><rect opacity=".7" x="39" y="57" width="61" height="3" rx="1.5" fill="#FF689E"/><rect opacity=".7" x="39" y="64" width="61" height="3" rx="1.5" fill="#FF689E"/><rect opacity=".7" x="39" y="71" width="42" height="3" rx="1.5" fill="#FF689E"/><circle cx="32.042" cy="41.575" r="4.468" fill="#FF689E"/><rect y="12" width="88" height="56" rx="5" fill="#AAF0D1"/><path d="M8 79.172V65a2 2 0 012-2h14.172c1.781 0 2.674 2.154 1.414 3.414L11.414 80.586C10.154 81.846 8 80.953 8 79.172z" fill="#AAF0D1"/><rect x="8" y="40" width="72" height="3" rx="1.5" fill="#fff"/><rect x="8" y="47" width="72" height="3" rx="1.5" fill="#fff"/><rect x="8" y="54" width="50" height="3" rx="1.5" fill="#fff"/><circle cx="12.5" cy="25.5" r="4.5" fill="#FF689E"/></svg>
